img/icons/social/Telegram_footer3.svg

<svg width="38" height="32" viewBox="0 0 38 32" fill="none" xmlns="http://www.w3.org/2000/svg">
<path d="M29.4621 30.2141L29.4316 30.2114L29.4011 30.2108C29.2219 30.2073 29.0474 30.1543 28.8966 30.0578L20.4902 23.8836L19.896 23.4471L19.362 23.9558L14.6857 28.4115L14.673 28.4236L14.6608 28.4362C14.6355 28.4624 14.6052 28.4831 14.5718 28.4974C14.5383 28.5116 14.5023 28.519 14.466 28.5191L14.4394 28.5192L14.4128 28.5209C14.3247 28.5265 14.2371 28.5025 14.1641 28.4527C14.0912 28.4028 14.037 28.3299 14.0102 28.2457L14.0068 28.2353L10.6901 18.2719L10.547 17.8423L10.1151 17.7082L1.87493 15.1503L1.85215 15.1432L1.82901 15.1373C1.76841 15.1221 1.7143 15.0879 1.67453 15.0397C1.6357 14.9927 1.6125 14.9347 1.6081 14.874C1.60568 14.802 1.62654 14.7312 1.66766 14.6719C1.70965 14.6114 1.77046 14.5664 1.84066 14.5439L1.8603 14.5377L1.87961 14.5305C13.1755 10.3292 21.6607 7.17847 27.3354 5.07807C30.173 4.02782 32.3071 3.24046 33.7384 2.71579C34.4542 2.45336 34.9929 2.25717 35.3553 2.12682C35.5058 2.07268 35.6241 2.03056 35.7113 2C35.7679 2.01803 35.8202 2.04871 35.864 2.0903L35.8727 2.09851L35.8816 2.10647C35.9107 2.13279 35.9335 2.16556 35.9477 2.20214C35.9581 2.22874 35.9638 2.25682 35.9649 2.28519L30.2724 29.5509L30.2684 29.5702L30.2652 29.5897C30.2349 29.7761 30.1354 29.9442 29.9863 30.0599C29.8373 30.1759 29.65 30.2309 29.4621 30.2141Z" stroke="black" stroke-width="2.5"/>
<path fill-rule="evenodd" clip-rule="evenodd" d="M13.0879 16.6516L15.5771 23.5636L16.1531 19.1918C26.4597 11.4157 31.6232 7.4412 31.6232 7.4412C31.6302 7.40688 31.6302 7.37183 31.6232 7.33752C31.6232 7.06103 31.4587 7.06104 31.1501 7.06104C31.0678 7.06104 25.0471 10.2578 13.0879 16.6516Z" fill="black"/>
</svg>

<svg width="38" height="32" fill="none" xmlns="http://www.w3.org/2000/svg"><path d="M29.462 30.214l-.03-.003h-.03a.971.971 0 01-.505-.153l-8.407-6.174-.594-.437-.534.509-4.676 4.456-.013.012-.012.012a.273.273 0 01-.195.083h-.027l-.026.002a.397.397 0 01-.403-.275l-.003-.01-3.317-9.964-.143-.43-.432-.134-8.24-2.558-.023-.007-.023-.006a.293.293 0 01-.22-.263.335.335 0 01.232-.33l.02-.006.019-.008a18750.18 18750.18 0 0125.455-9.452c2.838-1.05 4.972-1.838 6.403-2.362A305.027 305.027 0 0135.711 2a.397.397 0 01.153.09l.009.009.009.007a.253.253 0 01.083.18L30.272 29.55l-.004.02-.003.019a.747.747 0 01-.803.624z" stroke="#000" stroke-width="2.5"/><path fill-rule="evenodd" clip-rule="evenodd" d="M13.088 16.652l2.49 6.912.575-4.372c10.307-7.776 15.47-11.75 15.47-11.75a.259.259 0 000-.104c0-.277-.164-.277-.473-.277-.082 0-6.103 3.197-18.062 9.59z" fill="#000"/></svg>
